svg/material-icons/update_disabled/materialiconsround/20px.svg

<svg xmlns="http://www.w3.org/2000/svg" width="20" height="20" viewBox="0 0 20 20"><path d="M10 6c.41 0 .75.34.75.75v1.88l-1.5-1.5v-.38c0-.41.34-.75.75-.75zm-2.68-.8c.79-.45 1.71-.7 2.68-.7 1.64 0 3.11.74 4.12 1.88l-.76.76c-.32.32-.1.86.35.86h2.79c.28 0 .5-.22.5-.5V4.71c0-.45-.54-.67-.85-.35l-.96.96C13.9 3.9 12.06 3 10 3a7 7 0 0 0-3.77 1.1l1.09 1.1zM16.2 10c-.37 0-.69.27-.74.63-.08.74-.32 1.43-.66 2.05l1.09 1.09c.55-.86.92-1.85 1.05-2.92a.75.75 0 0 0-.74-.85zm.34 7.6c-.29.29-.77.29-1.06 0l-1.71-1.71a7.035 7.035 0 0 1-4.81 1.03c-3.01-.43-5.46-2.88-5.89-5.89-.25-1.77.16-3.45 1.03-4.8L2.4 4.52a.754.754 0 0 1 0-1.06c.29-.29.77-.29 1.06 0l13.08 13.08c.29.29.29.77 0 1.06zm-3.86-2.8L5.2 7.32c-.45.79-.7 1.71-.7 2.68 0 3.03 2.47 5.5 5.5 5.5.97 0 1.89-.25 2.68-.7z"/></svg>

<svg xmlns="http://www.w3.org/2000/svg" enable-background="new 0 0 20 20" height="20" viewBox="0 0 20 20" width="20"><rect fill="none" height="20" width="20"/><path d="M10,6c0.41,0,0.75,0.34,0.75,0.75v1.88l-1.5-1.5V6.75C9.25,6.34,9.59,6,10,6z M7.32,5.2C8.11,4.75,9.03,4.5,10,4.5 c1.64,0,3.11,0.74,4.12,1.88l-0.76,0.76C13.04,7.46,13.26,8,13.71,8h2.79C16.78,8,17,7.78,17,7.5V4.71c0-0.45-0.54-0.67-0.85-0.35 l-0.96,0.96C13.9,3.9,12.06,3,10,3C8.61,3,7.31,3.41,6.23,4.1L7.32,5.2z M16.2,10c-0.37,0-0.69,0.27-0.74,0.63 c-0.08,0.74-0.32,1.43-0.66,2.05l1.09,1.09c0.55-0.86,0.92-1.85,1.05-2.92C17,10.41,16.66,10,16.2,10z M16.54,17.6 c-0.29,0.29-0.77,0.29-1.06,0l-1.71-1.71c-1.36,0.87-3.03,1.28-4.81,1.03c-3.01-0.43-5.46-2.88-5.89-5.89 C2.82,9.26,3.23,7.58,4.1,6.23L2.4,4.52c-0.29-0.29-0.29-0.77,0-1.06c0.29-0.29,0.77-0.29,1.06,0l13.08,13.08 C16.83,16.83,16.83,17.31,16.54,17.6z M12.68,14.8L5.2,7.32C4.75,8.11,4.5,9.03,4.5,10c0,3.03,2.47,5.5,5.5,5.5 C10.97,15.5,11.89,15.25,12.68,14.8z"/></svg>
